X: 95
T: Qing en Joking mind
%%abc-version 2.0
%%abcx-abcm2ps-target-version 5.9.1 (29 Sep 2008)
%%abc-creator hum2abc beta
%%abcx-conversion-date 2013/10/02 07:44:27
%%abc-edited-by Helmut Schaffrath
%%humdrum-veritas 2304923227
%%humdrum-veritas-data 1263078703
%%continueall 1
%%barnumbers 0
L: 1/8
M: 2/4
K: C
G2c A [I:setbarnb 1]| 
c ed2 | 
G2c A | 
G2G2 | 
c dG2 | 
d gc2 | 
A G/ G/ E D | 
G> AG2 | 
EG2A | 
c de2 | 
E2G E | 
D2D2 | 
G A D E | 
G A d c | 
Ac2d | 
c4 |]  



